X: 1
T: PADDY, NOW WONT YOU BE EASY? -- JIG
B: Ryan's Mammoth Collection of Fiddle Tunes
R: jig
M: 9/8
L: 1/8
Z: Contributed 20010704234431 by John Chambers jmchambers:rcn.net
K: D
  vDDD dcd BAF | DDD dcd B2A | DDD dcd BAF | BEE EFA B2A :|
|: ddd ded cBA | ded def g2e | ddd ded cBA | BEE EFA B2A :|
|}vdDD dcd BAF | dDD dcd B2A | dDD dcd BAF | BEE EFA B2A |
|  dDD dcd BAF | dDD dcd B2A | dDD dcd BAF | BEE EFA B2A |]
